X:463
L:1/8
Q:3/8=92
M:9/8
K:Gdor
 A | (BA)B (cB)A (BA)G | (^FG)A A2 G FED | BAB (cB)c d2 d | DGG G2 A BAG | F2 f (fg)f (f_e)d | 
 c2 B (AB)G ^F2 D | D2 g g2 a (ba)g | d2 g g2 a b2 (a/g/) | f2 f fgf (f_e)d | c2 B (AB)G ^FED | 
 (BA)B cBc d2 d | DGG G2 A BAG |]

